polaris-icons/icons/new-icons/OnlineStoreMajor.svg

<svg width="20" height="20" viewBox="0 0 20 20" fill="none" xmlns="http://www.w3.org/2000/svg">
<path fill-rule="evenodd" clip-rule="evenodd" d="M13.9598 2.5C14.4084 2.5 14.8226 2.74036 15.0451 3.12983L16.8353 6.26261C16.9432 6.45148 17 6.66525 17 6.88278V7.75C17 8.71539 16.5026 9.56459 15.75 10.0553V11.5C15.75 13.0188 14.5188 14.25 13 14.25H12.5V15.5H13.25C13.6642 15.5 14 15.8358 14 16.25C14 16.6642 13.6642 17 13.25 17H6.75C6.33579 17 6 16.6642 6 16.25C6 15.8358 6.33579 15.5 6.75 15.5H7.5V14.25H7C5.48122 14.25 4.25 13.0188 4.25 11.5V10.0553C3.49745 9.56459 3 8.71539 3 7.75V6.88278C3 6.66525 3.05677 6.45148 3.1647 6.26261L4.95486 3.12983C5.17741 2.74036 5.59159 2.5 6.04016 2.5H13.9598ZM6.18524 4L4.5 6.94917V7.75C4.5 8.44036 5.05964 9 5.75 9H6C6.69036 9 7.25 8.44036 7.25 7.75V7.25C7.25 6.83579 7.58579 6.5 8 6.5C8.41421 6.5 8.75 6.83579 8.75 7.25V7.75C8.75 8.44036 9.30964 9 10 9C10.6904 9 11.25 8.44036 11.25 7.75V7.25C11.25 6.83579 11.5858 6.5 12 6.5C12.4142 6.5 12.75 6.83579 12.75 7.25V7.75C12.75 8.44036 13.3096 9 14 9H14.25C14.9404 9 15.5 8.44036 15.5 7.75V6.94917L13.8148 4H6.18524ZM14.25 10.5H14C13.212 10.5 12.5014 10.1686 12 9.63747C11.4986 10.1686 10.788 10.5 10 10.5C9.21199 10.5 8.50138 10.1686 8 9.63747C7.49862 10.1686 6.78801 10.5 6 10.5H5.75V11.5C5.75 12.1904 6.30964 12.75 7 12.75H13C13.6904 12.75 14.25 12.1904 14.25 11.5V10.5ZM9 15.5V14.25H11V15.5H9Z" fill="#4A4A4A"/>
</svg>

<svg viewBox="0 0 20 20" xmlns="http://www.w3.org/2000/svg"><path fill-rule="evenodd" d="M13.96 2.5c.448 0 .863.24 1.085.63l1.79 3.133c.108.188.165.402.165.62v.867c0 .965-.497 1.815-1.25 2.305v1.445a2.75 2.75 0 0 1-2.75 2.75h-.5v1.25h.75a.75.75 0 0 1 0 1.5h-6.5a.75.75 0 0 1 0-1.5h.75v-1.25h-.5a2.75 2.75 0 0 1-2.75-2.75v-1.445a2.748 2.748 0 0 1-1.25-2.305v-.867c0-.218.057-.432.165-.62l1.79-3.133a1.25 1.25 0 0 1 1.085-.63h7.92Zm-7.775 1.5-1.685 2.95v.8c0 .69.56 1.25 1.25 1.25h.25c.69 0 1.25-.56 1.25-1.25v-.5a.75.75 0 0 1 1.5 0v.5a1.25 1.25 0 1 0 2.5 0v-.5a.75.75 0 0 1 1.5 0v.5c0 .69.56 1.25 1.25 1.25h.25c.69 0 1.25-.56 1.25-1.25v-.8l-1.685-2.95h-7.63Zm8.065 6.5h-.25a2.742 2.742 0 0 1-2-.863 2.742 2.742 0 0 1-2 .863 2.742 2.742 0 0 1-2-.863 2.742 2.742 0 0 1-2 .863h-.25v1c0 .69.56 1.25 1.25 1.25h6c.69 0 1.25-.56 1.25-1.25v-1Zm-5.25 5v-1.25h2v1.25h-2Z" fill="#5C5F62"/></svg>
